packages/icons/plugins/SecurityChecker.svg

<svg width="28" height="28" viewBox="0 0 28 28" xmlns="http://www.w3.org/2000/svg">
<path
            d="M5.73999 25.06C5.73999 25.3323 6.56599 25.5934 8.03627 25.786C9.50656 25.9785 11.5007 26.0867 13.58 26.0867C15.6593 26.0867 17.6534 25.9785 19.1237 25.786C20.594 25.5934 21.42 25.3323 21.42 25.06C21.42 24.7877 20.594 24.5266 19.1237 24.334C17.6534 24.1415 15.6593 24.0333 13.58 24.0333C11.5007 24.0333 9.50656 24.1415 8.03627 24.334C6.56599 24.5266 5.73999 24.7877 5.73999 25.06Z"
            fill="url(#paint0_linear_931_5268)"
        />
        <path
            d="M13.6734 2.75332C9.33338 4.29332 4.20005 5.36665 4.20005 5.36665C3.87338 5.45999 3.59338 5.78665 3.59338 6.11332V14.7C3.59338 14.7933 3.73338 16.66 4.99338 18.8533C5.74005 20.16 7.23338 21.1867 8.44672 22.2133C9.94005 23.4267 12.0401 24.36 14.1401 25.06C14.1401 25.06 17.2667 24.3133 19.7401 22.5867C25.1067 18.8533 25.1067 14.7933 25.1067 14.7467V5.50666C25.1067 5.13332 24.8267 4.85332 24.5001 4.80665C24.5001 4.80665 19.5067 4.19999 14.6534 2.75332C14.4667 2.65999 13.8601 2.79999 13.6734 2.75332Z"
            fill="#7DABFF"
            fill-opacity="0.32"
        />
        <path
            d="M13.58 3.03333C9.38004 4.52666 4.06004 5.27332 4.06004 5.27332C3.73337 5.31999 3.45337 5.64666 3.45337 6.01999V14.3733C3.45337 14.4667 3.59337 16.2867 4.8067 18.3867C5.5067 19.6467 7.00004 20.7667 8.1667 21.7467C9.61337 22.96 11.3867 23.8933 13.44 24.5467L13.6267 24.5933L13.8134 24.5467C15.8667 23.8933 17.5934 22.96 19.04 21.7467C20.2067 20.7667 21.7 19.6467 22.4 18.3867C23.66 16.24 23.7534 14.42 23.7534 14.3267V5.97333C23.7534 5.64666 23.4734 5.27332 23.1467 5.22666C23.1 5.27332 18.48 4.52666 13.58 3.03333Z"
            fill="#699EFF"
        />
        <path
            d="M12.6933 8.82002C12.8333 8.30668 13.3933 7.93335 13.9066 7.93335H15.3066C15.8199 7.93335 16.0533 8.30668 15.8666 8.77335L14.6999 11.5267H15.7733C17.3133 11.5267 17.7333 12.46 16.7533 13.6267L13.0199 17.92C12.6933 18.2934 12.0399 18.3867 11.7599 18.2L13.5333 14H11.8999C11.3866 14 11.1066 13.6267 11.2466 13.1134L12.6933 8.82002Z"
            fill="#DAE9FF"
        />
        <path
            d="M11.76 8.82002C11.9 8.30668 12.46 7.93335 12.9734 7.93335H14.3734C14.8867 7.93335 15.12 8.30668 14.9334 8.77335L13.7667 11.5267H15.7734C16.8 11.5267 17.08 12.18 16.4267 12.9267L12.04 18.06C11.7134 18.4334 11.5267 18.3867 11.6667 17.8734L12.6 14H10.9667C10.4534 14 10.1734 13.6267 10.3134 13.1134L11.76 8.82002Z"
            fill="white"
        />
        <path
            d="M25.48 23.9866L24.8734 23.38C25.4334 22.6333 25.76 21.7 25.76 20.6733C25.76 18.1533 23.7067 16.1 21.14 16.1C18.5734 16.1 16.52 18.1533 16.52 20.6733C16.52 23.1933 18.5734 25.2466 21.14 25.2466C22.1667 25.2466 23.1 24.8733 23.8467 24.36L24.4534 24.9666C24.7334 25.2466 25.1534 25.2466 25.4334 24.9666C25.7134 24.6866 25.7134 24.2666 25.48 23.9866Z"
            fill="#FF5F5F"
        />
        <path
            d="M18.2467 20.6267C18.2467 21.3817 18.5515 22.1057 19.0941 22.6396C19.6367 23.1734 20.3727 23.4734 21.14 23.4734C21.9074 23.4734 22.6433 23.1734 23.1859 22.6396C23.7285 22.1057 24.0334 21.3817 24.0334 20.6267C24.0334 19.8717 23.7285 19.1477 23.1859 18.6138C22.6433 18.0799 21.9074 17.78 21.14 17.78C20.3727 17.78 19.6367 18.0799 19.0941 18.6138C18.5515 19.1477 18.2467 19.8717 18.2467 20.6267Z"
            fill="white"
        />
        <path
            d="M21.42 19.32C21.6533 19.32 21.84 19.1333 21.84 18.9C21.84 18.6666 21.6533 18.48 21.42 18.48C21.1867 18.48 21 18.6666 21 18.9C21 19.1333 21.1867 19.32 21.42 19.32Z"
            fill="#FFD6C2"
        />
        <defs>
            <linearGradient
                id="paint0_linear_931_5268"
                x1="13.58"
                y1="23.7752"
                x2="13.58"
                y2="25.1742"
                gradient-units="userSpaceOnUse">
                <stop stop-color="#3E7DEF" stop-opacity="0.29" />
                <stop offset="1" stop-color="#8DB3F9" stop-opacity="0" />
            </linearGradient>
        </defs>
</svg>

<svg xmlns="http://www.w3.org/2000/svg" width="28" height="28">
    <path fill="url(#SecurityChecker_svg__a)" d="M5.74 25.06c0 .272.826.533 2.296.726 1.47.192 3.465.3 5.544.3 2.08 0 4.073-.107 5.544-.3 1.47-.193 2.296-.454 2.296-.726 0-.272-.826-.533-2.296-.726-1.47-.192-3.465-.3-5.544-.3-2.08 0-4.073.108-5.544.3-1.47.193-2.296.454-2.296.726Z"/>
    <path fill="#7DABFF" fill-opacity=".32" d="M13.673 2.753C9.333 4.293 4.2 5.367 4.2 5.367c-.327.093-.607.42-.607.746V14.7c0 .093.14 1.96 1.4 4.153.747 1.307 2.24 2.334 3.454 3.36 1.493 1.214 3.593 2.147 5.693 2.847 0 0 3.127-.747 5.6-2.473 5.367-3.734 5.367-7.794 5.367-7.84v-9.24a.707.707 0 0 0-.607-.7s-4.993-.607-9.847-2.054c-.186-.093-.793.047-.98 0Z"/>
    <path fill="#699EFF" d="M13.58 3.033c-4.2 1.494-9.52 2.24-9.52 2.24-.327.047-.607.374-.607.747v8.353c0 .094.14 1.914 1.354 4.014.7 1.26 2.193 2.38 3.36 3.36 1.446 1.213 3.22 2.146 5.273 2.8l.187.046.186-.046c2.054-.654 3.78-1.587 5.227-2.8 1.167-.98 2.66-2.1 3.36-3.36 1.26-2.147 1.353-3.967 1.353-4.06V5.973c0-.326-.28-.7-.606-.746-.047.046-4.667-.7-9.567-2.194Z"/>
    <path fill="#DAE9FF" d="M12.693 8.82c.14-.513.7-.887 1.214-.887h1.4c.513 0 .746.374.56.84L14.7 11.527h1.073c1.54 0 1.96.933.98 2.1L13.02 17.92c-.327.373-.98.467-1.26.28l1.773-4.2H11.9c-.513 0-.793-.373-.653-.887l1.446-4.293Z"/>
    <path fill="#fff" d="M11.76 8.82c.14-.513.7-.887 1.213-.887h1.4c.514 0 .747.374.56.84l-1.166 2.754h2.006c1.027 0 1.307.653.654 1.4L12.04 18.06c-.327.373-.513.327-.373-.187L12.6 14h-1.633c-.514 0-.794-.373-.654-.887L11.76 8.82Z"/>
    <path fill="#FF5F5F" d="m25.48 23.987-.607-.607a4.48 4.48 0 0 0 .887-2.707c0-2.52-2.053-4.573-4.62-4.573s-4.62 2.053-4.62 4.573c0 2.52 2.053 4.574 4.62 4.574 1.027 0 1.96-.374 2.707-.887l.606.607c.28.28.7.28.98 0s.28-.7.047-.98Z"/>
    <path fill="#fff" d="M18.247 20.627c0 .755.305 1.479.847 2.013a2.918 2.918 0 0 0 2.046.833c.767 0 1.503-.3 2.046-.833a2.824 2.824 0 0 0 .847-2.013c0-.755-.305-1.48-.847-2.013a2.917 2.917 0 0 0-2.046-.834c-.767 0-1.503.3-2.046.834a2.824 2.824 0 0 0-.847 2.013Z"/>
    <path fill="#FFD6C2" d="M21.42 19.32c.233 0 .42-.187.42-.42a.418.418 0 0 0-.42-.42.418.418 0 0 0-.42.42c0 .233.187.42.42.42Z"/>
    <defs>
        <linearGradient id="SecurityChecker_svg__a" x1="13.58" x2="13.58" y1="23.775" y2="25.174">
            <stop stop-color="#3E7DEF" stop-opacity=".29"/>
            <stop offset="1" stop-color="#8DB3F9" stop-opacity="0"/>
        </linearGradient>
    </defs>
</svg>
